X: 1
T: Soldiers Joy.
M: C|
L: 1/8
O: Aird 1778
%Q: 1/2=104
I: :: ::
Z: Jack Campin * www.campin.me.uk * 2009
K: D
FG | "D"AFDF AFDF | A2d2- d2cB | AFDF AFDF | "A7"G2E2-E2 ||
FG | "D"AFDF AFDF | A2d2- d2fg | afdf "A7"gece | "D"d2d2-d2 :| 
e2 | "D"fefg fagf | "A7"edcd efge | "D"fefg fagf | "A7"edcB A2 ||
A2 | "D"fefg fagf | "A7"edcd efge | "D"afdf "A7"gece | "D"d2d2- d2 :| 
